X:69
T:Magic Wand, The
M:3/4
C:© Paul Gitlitz 2007
R:Waltz
K:A
cB|"A"A3c ea|"F#m"f3e cB|"A"A3c BA|"F#m"F3A cB|!
"A"A3c ea|"F#m"f3e f=g|"E"g3f ga|g4 (3agf|!
"A"e3c ea|"D"f3d fa|"E"g3e gb|"A"a4 gf|!
"A"e3c ec|"E"B3A GB|"A"A3c Bc|"A"A4 e2||!
"F#m"f3e fg|"A"a2"E"g2"F#m"f2|"A"e3c ef|e4e2|!
"F#m"f3e fg|"A"a2"E"g2"A"a2|"E"b3a bc'|b4 (3agf|!
"A"e3c ea|"D"f3d fa|"E"g3e gb|"A"a4 gf|!
"A"e3c ec|"E"B3A GB|"A"A3c Bc|A4||!
